svgs/solid/bell-school.svg

<svg xmlns="http://www.w3.org/2000/svg" viewBox="0 0 512 512"><path d="M416 208C416 93.12 322.88 0 208 0S0 93.12 0 208s93.12 208 208 208 208-93.12 208-208zm-288 0c0-44.11 35.89-80 80-80s80 35.89 80 80-35.89 80-80 80-80-35.89-80-80zm128 0c0-26.51-21.49-48-48-48s-48 21.49-48 48 21.49 48 48 48 48-21.49 48-48zm208 112c-26.51 0-48 21.49-48 48 0 16.43 8.27 30.89 20.86 39.55C430.78 421.9 416.55 432 400 432h-48v-32.46C311.83 429.82 262.06 448 208 448s-103.83-18.18-144-48.46V480c0 17.67 14.33 32 32 32h224c17.67 0 32-14.33 32-32h48c42.2 0 77.48-29.87 85.98-69.56 15.39-8 26.02-23.9 26.02-42.44 0-26.51-21.49-48-48-48z"/></svg>

<svg xmlns="http://www.w3.org/2000/svg" viewBox="0 0 512 512"><!--! Font Awesome Pro 6.0.0-alpha3 by @fontawesome - https://fontawesome.com License - https://fontawesome.com/license (Commercial License) --><path d="M416 208C416 93.13 322.9 0 208 0S0 93.13 0 208S93.13 416 208 416S416 322.9 416 208zM128 208C128 163.9 163.9 128 208 128S288 163.9 288 208S252.1 288 208 288S128 252.1 128 208zM256 208C256 181.5 234.5 160 208 160S160 181.5 160 208S181.5 256 208 256S256 234.5 256 208zM464 352c-26.5 0-48 21.5-48 48c0 16.38 8.244 30.89 20.87 39.52C430.7 453.9 416.5 464 400 464H352v-64.5C311.9 429.9 261.1 448 208 448c-54 0-103.9-18.12-144-48.5V480c0 17.62 14.38 32 32 32h304c42.25 0 77.49-29.9 85.99-69.52C501.4 434.5 512 418.5 512 400C512 373.5 490.5 352 464 352z"/></svg>
